X:1
T:Title
%%score { ( 1 3 ) | ( 2 4 ) }
L:1/8
M:3/4
K:F
V:1 treble nm="Grand Piano"
V:3 treble 
V:2 bass 
V:4 bass 
V:1
 z2 z[Q:1/4=92] C F>G | A2- [FA]c dc | [FA]3 A G>^F | [EG]3 B A_A |[M:3/8] [FA]3 | z F>G | %6
[M:3/4] [CA]3 A Ac |[M:7/8] [DB]-[DB]- [DB]3 [B,DB]2 | %8
[M:3/4] c2 z2 z2[Q:1/4=91][Q:1/4=89][Q:1/4=88][Q:1/4=86][Q:1/4=85][Q:1/4=83][Q:1/4=82][Q:1/4=81][Q:1/4=79][Q:1/4=78][Q:1/4=76][Q:1/4=75][Q:1/4=73][Q:1/4=72][Q:1/4=70] | %9
[M:7/8] [CAc]- [CAc]3 [Fd]3 |[M:3/4] [Ec]2 [CEG]2 .[CEA]2 |[M:9/16] [A,CF]4- [A,CF]/ |] %12
V:2
 z2 z2 A,>B, | z C, F,[K:treble]A BA | z C, F,C E>E | z E, G,E EE |[M:3/8] z C,F, | CA,>B, | %6
[M:3/4] z C, F,[K:treble]C F_E |[M:7/8][K:bass] B,,F, B,3 B,,2 |[M:3/4] .C2 E2 [C,C]2 | %9
[M:7/8] F,C, F,2 [B,,B,]3 |[M:3/4] [C,G,]2 C,2 z C |[M:9/16] F,4- F,/ |] %12
V:3
 x6 | C2 z2 z2 | x6 | x6 |[M:3/8] x3 | x3 |[M:3/4] x6 |[M:7/8] x7 |[M:3/4] z E G2 [Bd]2 | %9
[M:7/8] x7 |[M:3/4] x6 |[M:9/16] x9/2 |] %12
V:4
 x6 | F,,4[K:treble] z2 | F,,4 z2 | C,,4 z2 |[M:3/8] F,,3 | x3 |[M:3/4] F,,4[K:treble] z2 | %7
[M:7/8][K:bass] x7 |[M:3/4] [C,G,]4 z2 |[M:7/8] x7 |[M:3/4] z2 z2 C,2 |[M:9/16] x9/2 |] %12

